Onigiri/icons/second-life.svg

<svg viewBox="0 0 14 14" xmlns="http://www.w3.org/2000/svg"><path d="m6.515625 1.0019531c-.097658.00721-.2005644.034594-.3046875.082031-.8434069.3843654.00669 5.3013865.379519 5.674173.2309447.043121.3619491.1399444.7148437.050778.1784878-.1444963.2215873.0900516.2493873-.6917476.028245-.7941992-.0932554-3.3030541-.2070313-4.2519531-.0675349-.5635495-.4088446-.89450727-.8320312-.8632813zm3.582644 6.5511262c.285995.0523.296692.080289.56384-.6351106.368505-.986899.812187-2.6807471.785157-2.9980468-.057212-.6715994-.84024-.8010057-1.15625-.1914063-.082456.1590999-.3234518 1.0335134-.5351566 1.9453125-.3524077 1.5177985-.3366397 1.3680452-.2259498 1.562845.1138046.1327523.2359567.1872418.5683594.3164062zm-.5767846-3.5784699c.2066718-1.4500986.218506-1.6408815.1113281-1.8632813-.1377516-.2858622-.3861236-.4309973-.6347656-.4238281-.1933883.0055761-.388091.1033533-.53125.2988281-.1595289.21777-.7715078 4.8468168-.5696998 4.9105012.3609033.1138901.6157721.1873053 1.0298716.1132096.1319205-.2696343.3447469-1.2830313.5945157-3.0354295zm-4.5258507 4.3886719c-.2235327.3065536-.0733298 1.1197043.4926475.6874996.2089748-.1594999.1975145-.1015625.2402344-.1015625.04278-.0000001.058999.1592158.037109.3535156-.1196639 1.061599.6425792 1.683594 1.7207031 1.683594.8735082.0038 1.5148176-.41817 1.5861675-1.2785695.02159-.2603997-.00295-.5252126-.060547-.6328125-.072874-.1363998-.0872-.2072937-.046874-.2148433.040325-.00755.1907838-.044638.3364927.077962 1.0642391.4552042.6839164 2.4900179-.803242 2.8431179-.8841351.262499-2.3547506.212858-3.2522308-.56048-.6585713-.3585-1.078125-1.067119-1.078125-1.8242186-.03047-.4993717-.028203-.9999129-.035156-1.5-.08958-1.3541983-.353324-1.8063029-1.1132812-1.9082028-.4370376-.0586-.5310406.1079382-.4316407.7734375.040041.2680998.097243 1.1080883.1269532 1.8671876.029714.7591992.1045356 1.5715877.1660156 1.8046877.3349906 1.269898 1.4292989 2.160213 3.0058593 2.445312.7778323.14 1.9108078.161975 2.5175782.04687 2.6569595-.503702 3.2862545-3.2543615 1.9980465-4.5410104-.761777-.5943936-1.6164481-.8698366-2.5546878-.9785156-1.2966377-.1323999-2.1264115-.0380739-2.8520225.9570313zm-.7300087-6.5507813c-.2959397-.0126375-.5832447.155266-.6894531.5097656-.0804919.2686998-.046725.5045795.2617187 1.8300781.3969676 1.7057983.7644824 2.6741547.9615502 2.9749544.3068651.4682731.9005275.0259115.9365581-.0202722.0982161-.1258922.1173826-.3386037.0829732-.7551185-.0549249-.6725993-.6680687-3.5968953-.8111596-3.9690949-.1403344-.3649496-.4462478-.557675-.7421875-.5703125zm4.0351563 6.9824219c.012428-.0006254.022765.00309.03125.011719.01766.0179.014314.1363189-.00977.2617188-.049028.2549994-.2734332.3145651-.2734332.072265 0-.1294999.1649587-.3413254.2519532-.3457028z" fill="#fff"/></svg>

<?xml version="1.0" encoding="UTF-8" standalone="no"?>
<svg
   viewBox="0 0 14 14"
   version="1.1"
   id="svg1"
   sodipodi:docname="second-life.svg"
   inkscape:version="1.3.2 (091e20e, 2023-11-25, custom)"
   xmlns:inkscape="http://www.inkscape.org/namespaces/inkscape"
   xmlns:sodipodi="http://sodipodi.sourceforge.net/DTD/sodipodi-0.dtd"
   xmlns="http://www.w3.org/2000/svg"
   xmlns:svg="http://www.w3.org/2000/svg">
  <defs
     id="defs1" />
  <sodipodi:namedview
     id="namedview1"
     pagecolor="#ffffff"
     bordercolor="#666666"
     borderopacity="1.0"
     inkscape:showpageshadow="2"
     inkscape:pageopacity="0.0"
     inkscape:pagecheckerboard="0"
     inkscape:deskcolor="#d1d1d1"
     inkscape:zoom="64"
     inkscape:cx="6.3203125"
     inkscape:cy="10.351562"
     inkscape:window-width="1920"
     inkscape:window-height="1027"
     inkscape:window-x="-8"
     inkscape:window-y="-8"
     inkscape:window-maximized="1"
     inkscape:current-layer="svg1" />
  <path
     d="m 6.515625,1.0019531 c -0.097658,0.00721 -0.2005644,0.034594 -0.3046875,0.082031 -0.8434069,0.3843654 0.00669,5.3013865 0.379519,5.674173 0.2309447,0.043121 0.3619491,0.1399444 0.7148437,0.050778 C 7.483788,6.6644388 7.5268875,6.8989867 7.5546875,6.1171875 7.5829325,5.3229883 7.4614321,2.8141334 7.3476562,1.8652344 7.2801213,1.3016849 6.9388116,0.97072713 6.515625,1.0019531 Z m 3.582644,6.5511262 c 0.285995,0.0523 0.296692,0.080289 0.56384,-0.6351106 0.368505,-0.986899 0.812187,-2.6807471 0.785157,-2.9980468 C 11.390054,3.2483225 10.607026,3.1189162 10.291016,3.7285156 10.20856,3.8876155 9.9675642,4.762029 9.7558594,5.6738281 9.4034517,7.1916266 9.4192197,7.0418733 9.5299096,7.2366731 9.6437142,7.3694254 9.7658663,7.4239149 10.098269,7.5530793 Z M 9.5214844,3.9746094 C 9.7281562,2.5245108 9.7399904,2.3337279 9.6328125,2.1113281 9.4950609,1.8254659 9.2466889,1.6803308 8.9980469,1.6875 8.8046586,1.6930761 8.6099559,1.7908533 8.4667969,1.9863281 8.307268,2.2040981 7.6952891,6.8331449 7.8970971,6.8968293 8.2580004,7.0107194 8.5128692,7.0841346 8.9269687,7.0100389 9.0588892,6.7404046 9.2717156,5.7270076 9.5214844,3.9746094 Z M 4.9956337,8.3632813 C 4.772101,8.6698349 4.9223039,9.4829856 5.4882812,9.0507809 5.697256,8.891281 5.6857957,8.9492184 5.7285156,8.9492184 c 0.04278,-10e-8 0.058999,0.1592158 0.037109,0.3535156 -0.1196639,1.061599 0.6425792,1.683594 1.7207031,1.683594 0.8735082,0.0038 1.5148176,-0.41817 1.5861675,-1.2785695 0.02159,-0.2603997 -0.00295,-0.5252126 -0.060547,-0.6328125 -0.072874,-0.1363998 -0.0872,-0.2072937 -0.046874,-0.2148433 0.040325,-0.00755 0.1907838,-0.044638 0.3364927,0.077962 1.0642391,0.4552042 0.6839164,2.4900179 -0.803242,2.8431179 -0.8841351,0.262499 -2.3547506,0.212858 -3.2522308,-0.56048 -0.6585713,-0.3585 -1.078125,-1.067119 -1.078125,-1.8242186 -0.03047,-0.4993717 -0.028203,-0.9999129 -0.035156,-1.5 C 4.0432331,6.5422857 3.7794891,6.0901811 3.0195319,5.9882812 2.5824943,5.9296812 2.4884913,6.0962194 2.5878912,6.7617187 2.6279322,7.0298185 2.6851342,7.869807 2.7148444,8.6289063 2.7445584,9.3881055 2.81938,10.200494 2.88086,10.433594 c 0.3349906,1.269898 1.4292989,2.160213 3.0058593,2.445312 0.7778323,0.14 1.9108078,0.161975 2.5175782,0.04687 C 11.061257,12.422074 11.690552,9.6714145 10.402344,8.3847656 9.640567,7.790372 8.7858959,7.514929 7.8476562,7.40625 6.5510185,7.2738501 5.7212447,7.3681761 4.9956337,8.3632813 Z M 4.265625,1.8125 C 3.9696853,1.7998625 3.6823803,1.967766 3.5761719,2.3222656 3.49568,2.5909654 3.5294469,2.8268451 3.8378906,4.1523437 4.2348582,5.858142 4.602373,6.8264984 4.7994408,7.1272981 5.1063059,7.5955712 5.6999683,7.1532096 5.7359989,7.1070259 5.834215,6.9811337 5.8533815,6.7684222 5.8189721,6.3519074 5.7640472,5.6793081 5.1509034,2.7550121 5.0078125,2.3828125 4.8674781,2.0178629 4.5615647,1.8251375 4.265625,1.8125 Z m 4.0351563,6.9824219 c 0.012428,-6.254e-4 0.022765,0.00309 0.03125,0.011719 0.01766,0.0179 0.014314,0.1363189 -0.00977,0.2617188 -0.049028,0.2549994 -0.2734332,0.3145651 -0.2734332,0.072265 0,-0.1294999 0.1649587,-0.3413254 0.2519532,-0.3457028 z"
     style="fill:#ffffff;fill-opacity:1;stroke:none;stroke-width:0.2;stroke-dasharray:none;stroke-opacity:1"
     id="path2"
     sodipodi:nodetypes="scccccsccscsccccsczccscsccccscccscscscccccsscccsccssccss" />
</svg>
